X:1
T:Title
%%score { 1 | ( 2 3 ) }
L:1/8
M:4/4
K:G
V:1 treble nm="Grand Piano"
V:2 treble 
V:3 treble 
V:1
 z4 z[Q:1/4=100] D B>A | G3 F AG[DF][DE] | [CF]2 [CE]2- [CE][EA] [Ec]>[EB] | %3
 [CEA]3 [B,EG] [A,EF][G,E][A,EF][_B,EG] | [B,GB]2 [CFA]4 z2 | D2 EF GABc |[M:3/4] d6 | %7
[M:1/4] [Ge]2 |[M:4/4] [DGd][D^GB][EAd][EAc] [D=GB]2 [CFA]2 | [B,G]6 z2 | [CGc]4 [DGB]2 [EGA]2 | %11
 [Fd]4 [CDF]4 |[M:5/8] [B,DG]-[B,DG]- [B,DG]3 |] %13
V:2
 z4 z [G,B,] [G,DG]>[G,CD] | [G,B,D]3 [G,B,D][K:bass] [G,B,D][G,B,D][B,,G,][B,,G,] | %2
 [C,G,]2 [C,G,]2- [C,G,][C,G,] [A,,A,]>[B,,^G,] | C,3 C, C,C,^C,C, | D,2 D,4 z2 | %5
 D,2 E,F, G,A,B,C |[M:3/4] D6 |[M:1/4] [C,C]2 |[M:4/4] B,,E,C,C, D,2 D,2 | G,6 z2 | E,4 D,2 C,2 | %11
 A,4 z4 |[M:5/8] G,,-G,,- G,,3 |] %13
V:3
 x8 | x4[K:bass] x4 | x8 | x8 | x8 | x8 |[M:3/4] x6 |[M:1/4] x2 |[M:4/4] x8 | x8 | x8 | %11
 D,3- [D,B,] D,4 |[M:5/8] x5 |] %13

